X: 28306
T: Mucka's
R: reel
M: 4/4
K: Eminor
GF|~E3 F ~G3 E|F ~B3FBdf|e~B3 dBAF|ABAF EDB,A,|
B,EEF GFGE|F ~B3FBdf|e~B3dBAF|ABAF E2:|
Bd|efed Bdeg|f~d3 Adeg|f~d3 Adfd|efed BAFA|
efed ~B3c|d~F3AFED|EDEF GFGE|FBAF E2:|

